!!!OTL: 56a. Die Kindsmoerderin.
!!!ODT: 1806
!!!ARE: Europa, Mitteleuropa, Deutschland, Schwaben
!!!SCT: E0056
!!!TXL: @@DE
!!!YEM: Copyright 1995, estate of Helmut Schaffrath.
**kern	**text
*ICvox	*
*M4/4	*
*met(c)	*
*k[b-e-a-d-]	*
*f:	*
!LO:TX:a:t=Wehmüthig klagend.	!
!LO:TX:a:t=Schwäbiſch 1806.	!
{4a-	.
=1	=1
4a-	Jo-
4f	-ſeph,
4cc	lie-
4cc	-ber
=2	=2
2cc	Jo-
4a-}	-ſeph,
{4a-	was
=3	=3
4g	haſt
4g	.
4g	du
4f	ge-
=4	=4
2g	-dacht,
4r}	.
{4g	daß
=5	=5
4g	du
4a-	die
4b-	ſchö-
4cc	-ne
=6	=6
2dd-	Nan-
4cc}	-nerl
{4b-	ins
=7	=7
2a-	Un-
4g	-glück
4g	ge-
=8	=8
2f	-bracht!
4r}	.
==	==
!!!AGN: erzaehlendes Volks - Lied, Sage, Kinds - Mord, Ballade ?
!!!ONB: ESAC (Essen Associative Code) Database: ERK1
!!!AMT: simple quadruple
!!!AIN: vox
!!!EED: Helmut Schaffrath
!!!EEV: 1.0
!!!GTL: Sagen von Mordthaten, unschuldig Gesangeg und Hinrichtungen
!!!URL-scan: https://rosdok.uni-rostock.de/mcrviewer/recordIdentifier/rosdok_ppn745146120/iview2/phys_0249.iview2?x=-250.1417780126858&y=135.82361992786173&scale=0.5392104374602399&rotation=0&layout=singlePageLayout&logicalDiv=log_0009
!!!ENC: Anna Maria Matuszewska
!!!EEV: 2024/11/25
*-	*-
